X: 1
T: Flow Gently Sweet Afton
C: Jonathan E. Spilman
O: Wales
R: waltz
M: 3/4
N: Q: 3/8=110
L: 1/4
K: G
D \
| "G"GGB/A/ | GGD | "C"EGE | "D7"D2D | "G"GGA | "(Em)"BBd | "(A7)"dBG | "D7"A2D |
| "G"GGB/A/ | GGD | "C"EcE | "D7"D2D | "G"GGA | "(Em)"Bdc | "D7"BDF | "G"G2 |]
F/G/ \
| "D"AAd | AAF | "A7"AGE | "D"D2F/G/ | AAd | AAF | "Em"G/F/ G/A/ "A"B/^c/ | "D"d"D7"e2 |
| "G"dBB/A/ | GGD | "C"EcE | "D7"D2D | "G"GGA | "(Em)"Bdc | "D7"BDF | "G"G2 |]

%%textfont Helvetica 10
%%begintext
version 2
%%endtext
